storage/app/icons/phosphoricons/duotone/book-open-user-duotone.svg

<svg xmlns="http://www.w3.org/2000/svg" fill="currentColor" viewBox="0 0 256 256"><path d="M232 80v120h-72a32 32 0 0 0-32 32 32 32 0 0 0-32-32H24V80h72a32 32 0 0 1 32 32 32 32 0 0 1 32-32Z" opacity=".2"/><path d="M232 72h-72a40 40 0 0 0-32 16 40 40 0 0 0-32-16H24a8 8 0 0 0-8 8v120a8 8 0 0 0 8 8h72a24 24 0 0 1 24 24 8 8 0 0 0 16 0 24 24 0 0 1 24-24h72a8 8 0 0 0 8-8V80a8 8 0 0 0-8-8M96 192H32V88h64a24 24 0 0 1 24 24v88a39.8 39.8 0 0 0-24-8m128 0h-64a39.8 39.8 0 0 0-24 8v-88a24 24 0 0 1 24-24h64ZM89.6 43.19a48 48 0 0 1 76.8 0 8 8 0 0 1-12.79 9.62 32 32 0 0 0-51.22 0 8 8 0 1 1-12.79-9.62"/></svg>

<svg xmlns="http://www.w3.org/2000/svg" viewBox="0 0 256 256" fill="currentColor"><path d="M232,80V200H160a32,32,0,0,0-32,32,32,32,0,0,0-32-32H24V80H96a32,32,0,0,1,32,32,32,32,0,0,1,32-32Z" opacity="0.2"/><path d="M232,72H160a40,40,0,0,0-32,16A40,40,0,0,0,96,72H24a8,8,0,0,0-8,8V200a8,8,0,0,0,8,8H96a24,24,0,0,1,24,24,8,8,0,0,0,16,0,24,24,0,0,1,24-24h72a8,8,0,0,0,8-8V80A8,8,0,0,0,232,72ZM96,192H32V88H96a24,24,0,0,1,24,24v88A39.81,39.81,0,0,0,96,192Zm128,0H160a39.81,39.81,0,0,0-24,8V112a24,24,0,0,1,24-24h64ZM89.6,43.19a48,48,0,0,1,76.8,0,8,8,0,0,1-12.79,9.62,32,32,0,0,0-51.22,0A8,8,0,1,1,89.6,43.19Z"/></svg>
